assets/logo-dharma-grey.svg

<svg height="59" viewBox="0 0 198 59" width="198" xmlns="http://www.w3.org/2000/svg"><g fill="#282138" fill-rule="evenodd"><path d="m29.12656 2.41466531c-14.9576 0-27.1264 12.21019049-27.1264 27.21866669s12.1688 27.2186666 27.1264 27.2186666 27.1264-12.2101904 27.1264-27.2186666-12.1688-27.21866669-27.1264-27.21866669m0 56.44413609c-16.0604 0-29.1264-13.1104422-29.1264-29.2254694 0-16.1146259 13.066-29.22546941 29.1264-29.22546941s29.1264 13.11084351 29.1264 29.22546941c0 16.1150272-13.066 29.2254694-29.1264 29.2254694"/><path d="m17.1578 5.20849592v28.49419048l11.5908-7.2108435v-24.07480957c-4.0648.0549864-7.9596.99296599-11.5908 2.79146259zm-2 32.09961228v-33.32456466l.538-.28095238c4.184-2.18621089 8.7024-3.29476871 13.4308-3.29476871.142 0 .2828.00441497.4236.00923129l1.1984.02809524v27.16408162z"/><path d="m17.69472 54.3216612c3.5616 1.6596259 7.4792 2.5305783 11.432 2.5305783 14.722 0 26.7424-11.828898 27.1176-26.5122722zm11.432 4.537381c-4.874 0-9.6988-1.2337823-13.9532-3.5676939l-1.5056-.826 44.492-27.6782245.0652 1.7234422c.014.3732653.028.7465306.028 1.1230068 0 16.1150272-13.0664 29.2254694-29.1264 29.2254694z"/><path d="m5.62968 43.2352803c4.848 8.4229524 13.7664 13.6169592 23.4968 13.6169592 14.9576 0 27.1268-12.2101905 27.1268-27.2186667 0-5.4043197-1.5668-10.5931089-4.5404-15.0666735l-7.374 4.587551v18.5918232l-15.5904 9.6988775v-18.5918231zm23.4968 15.6237619c-10.7836 0-20.6372-5.9397347-25.716-15.5009456l-.4404-.8292109 27.7784-17.2809796v18.5918232l11.5904-7.2104422v-18.5918232l9.9232-6.1733265.5448.762585c3.5632 4.9865035 5.4464 10.8668368 5.4464 17.0068504 0 16.1150272-13.0664 29.2254694-29.1268 29.2254694z"/><path d="m30.74844 2.47189932v41.36782998l11.5908-7.2104422v-30.76548982c-3.5436-1.98593197-7.5204-3.14867347-11.5908-3.39189796zm-2 44.97325168v-47.04387073l1.0216.02247619c4.956.10836735 9.8232 1.48904762 14.0752 3.99313606l.494.29058503v33.03879595z"/><path d="m86.791 21.5055401v17.8212109h3.1416c2.3016 0 4.0928-.718034 5.3736-2.1549047 1.28-1.4368708 1.9204-3.4834082 1.9204-6.1388096v-1.3277006c0-2.5819524-.604-4.5891565-1.8116-6.0208096-1.208-1.431653-2.9216-2.1581156-5.1404-2.1789864zm-2.986 20.271517v-22.7214217h6.392c1.9696 0 3.7116.4366802 5.2256 1.3108435 1.5136.8737619 2.6828 2.1171769 3.5072 3.7298435.824 1.6126667 1.2416 3.4641429 1.252 5.5552313v1.4513198c0 2.1432653-.4124 4.0212313-1.2364 5.6334966-.8244 1.6126666-2.0012 2.8508639-3.5304 3.7141904-1.5296.8637279-3.3104 1.3056259-5.3424 1.3264966z"/><path d="m108.45604 26.9362694c1.2752-1.5709252 2.934-2.3563878 4.9764-2.3563878 3.5564 0 5.35 2.0132245 5.3816 6.0392721v11.1578232h-2.8776v-11.1734762c-.01-1.2173266-.2876-2.1167755-.832-2.699551-.544-.5827756-1.3916-.8741633-2.5424-.8741633-.9332 0-1.7524.2496463-2.4576.7493401-.7052.4992925-1.2548 1.1547143-1.6484 1.9662653v12.0315851h-2.8772v-23.9700545h2.8772z"/><path d="m130.0744 39.5765578c.902 0 1.7576-.2339932 2.566-.7023809.8092-.4679864 1.3944-1.076449 1.7576-1.8257891v-3.4641429h-2.2552c-3.5252 0-5.288 1.0351088-5.288 3.1053265 0 .9054694.3008 1.6126667.9024 2.1223946.6012.5097279 1.3736.7645918 2.3172.7645918zm4.7748 2.2002585c-.1664-.3327279-.3008-.9255374-.4044-1.7788299-1.3376 1.3943265-2.9344 2.0910884-4.7904 2.0910884-1.6588 0-3.02-.4707959-4.0824-1.4123877-1.0628-.9411905-1.594-2.1352381-1.594-3.5813402 0-1.7579591.666-3.1233877 1.9984-4.0962857 1.332-.9728979 3.2064-1.4589456 5.6224-1.4589456h2.7992v-1.3268979c0-1.0086191-.3008-1.8125442-.902-2.4109728-.6016-.5980272-1.488-.8970408-2.6596-.8970408-1.0264 0-1.8872.2600816-2.5816.7802449-.6948.5201632-1.042 1.1494966-1.042 1.888h-2.8928c0-.8424558.2976-1.656415.8944-2.4422789.596-.7850613 1.4044-1.4067687 2.426-1.8647211 1.0212-.457551 2.1436-.6867279 3.3672-.6867279 1.9388 0 3.458.486449 4.5568 1.4593469 1.0992.972898 1.6692 2.3122381 1.7108 4.0184218v7.7715442c0 1.5500544.1968 2.783034.5908 3.6981361v.2496462z"/><path d="m151.25684 27.4824408c-.4356-.0726462-.9076-.1091701-1.4152-.1091701-1.8872 0-3.1676.8063334-3.8416 2.4185987v11.9850272h-2.8772v-16.8848367h2.7996l.0464 1.9506122c.9436-1.5083129 2.2808-2.2628707 4.0128-2.2628707.5596 0 .9848.0730476 1.2752.2187415z"/><path d="m157.94472 24.8920197.0776 1.8727483c1.2336-1.4565374 2.8976-2.1850068 4.9924-2.1850068 2.3536 0 3.9552.9054694 4.8056 2.7156055.56-.8115511 1.2884-1.4669728 2.1852-1.9666667.8968-.4992925 1.9572-.7489388 3.1808-.7489388 3.6908 0 5.5672 1.9610476 5.63 5.8831429v11.3139524h-2.8776v-11.1421701c0-1.2064898-.2748-2.1091497-.824-2.7075782-.5496-.5980272-1.4728-.8970409-2.7684-.8970409-1.068 0-1.9548.3198844-2.6596.9596531-.7052.6397687-1.1148 1.5006871-1.2288 2.5827551v11.204381h-2.8924v-11.0643062c0-2.4551224-1.1976-3.682483-3.5928-3.682483-1.8872 0-3.178.805932-3.8724 2.4185987v12.3281905h-2.8776v-16.8848368z"/><path d="m190.1076 39.5765578c.902 0 1.7576-.2339932 2.566-.7023809.8092-.4679864 1.3944-1.076449 1.7576-1.8257891v-3.4641429h-2.2552c-3.5252 0-5.288 1.0351088-5.288 3.1053265 0 .9054694.3008 1.6126667.9024 2.1223946.6012.5097279 1.3736.7645918 2.3172.7645918zm4.7748 2.2002585c-.1664-.3327279-.3008-.9255374-.4044-1.7788299-1.3376 1.3943265-2.9344 2.0910884-4.7904 2.0910884-1.6588 0-3.02-.4707959-4.0824-1.4123877-1.0628-.9411905-1.594-2.1352381-1.594-3.5813402 0-1.7579591.666-3.1233877 1.9984-4.0962857 1.332-.9728979 3.2064-1.4589456 5.6224-1.4589456h2.7992v-1.3268979c0-1.0086191-.3008-1.8125442-.902-2.4109728-.6016-.5980272-1.488-.8970408-2.6596-.8970408-1.0264 0-1.8872.2600816-2.5816.7802449-.6948.5201632-1.042 1.1494966-1.042 1.888h-2.8928c0-.8424558.2976-1.656415.8944-2.4422789.596-.7850613 1.4044-1.4067687 2.426-1.8647211 1.0212-.457551 2.1436-.6867279 3.3672-.6867279 1.9388 0 3.458.486449 4.5568 1.4593469 1.0992.972898 1.6692 2.3122381 1.7108 4.0184218v7.7715442c0 1.5500544.1968 2.783034.5908 3.6981361v.2496462z"/></g></svg>

<?xml version="1.0" encoding="UTF-8"?>
<svg width="198px" height="59px" viewBox="0 0 198 59" version="1.1" xmlns="http://www.w3.org/2000/svg" xmlns:xlink="http://www.w3.org/1999/xlink">
    <!-- Generator: Sketch 52.2 (67145) - http://www.bohemiancoding.com/sketch -->
    <title>Logo</title>
    <desc>Created with Sketch.</desc>
    <g id="Designs" stroke="none" stroke-width="1" fill="none" fill-rule="evenodd">
        <g id="Home" transform="translate(-141.000000, -4277.000000)" fill="#282138">
            <g id="JOIN-THE-WBTC-COMMUNITY" transform="translate(0.000000, 3815.000000)">
                <g id="SECTION---JOIN-THE-WBTC-COMMUNITY" transform="translate(130.000000, 85.000000)">
                    <g id="Logo-Dharma" transform="translate(0.000000, 356.000000)">
                        <g id="Logo" transform="translate(11.000000, 21.000000)">
                            <path d="M29.12656,2.41466531 C14.16896,2.41466531 2.00016,14.6248558 2.00016,29.633332 C2.00016,44.6418082 14.16896,56.8519986 29.12656,56.8519986 C44.08416,56.8519986 56.25296,44.6418082 56.25296,29.633332 C56.25296,14.6248558 44.08416,2.41466531 29.12656,2.41466531 M29.12656,58.8588014 C13.06616,58.8588014 0.000159999999,45.7483592 0.000159999999,29.633332 C0.000159999999,13.5187061 13.06616,0.407862585 29.12656,0.407862585 C45.18696,0.407862585 58.25296,13.5187061 58.25296,29.633332 C58.25296,45.7483592 45.18696,58.8588014 29.12656,58.8588014" id="Fill-1"></path>
                            <path d="M17.1578,5.20849592 L17.1578,33.7026864 L28.7486,26.4918429 L28.7486,2.41703333 C24.6838,2.47201973 20.789,3.40999932 17.1578,5.20849592 Z M15.1578,37.3081082 L15.1578,3.98354354 L15.6958,3.70259116 C19.8798,1.51638027 24.3982,0.407822449 29.1266,0.407822449 C29.2686,0.407822449 29.4094,0.412237415 29.5502,0.417053741 L30.7486,0.44514898 L30.7486,27.6092306 L15.1578,37.3081082 Z" id="Fill-3"></path>
                            <path d="M17.69472,54.3216612 C21.25632,55.9812871 25.17392,56.8522395 29.12672,56.8522395 C43.84872,56.8522395 55.86912,45.0233415 56.24432,30.3399673 L17.69472,54.3216612 Z M29.12672,58.8590422 C24.25272,58.8590422 19.42792,57.6252599 15.17352,55.2913483 L13.66792,54.4653483 L58.15992,26.7871238 L58.22512,28.510566 C58.23912,28.8838313 58.25312,29.2570966 58.25312,29.6335728 C58.25312,45.7486 45.18672,58.8590422 29.12672,58.8590422 Z" id="Fill-5"></path>
                            <path d="M5.62968,43.2352803 C10.47768,51.6582327 19.39608,56.8522395 29.12648,56.8522395 C44.08408,56.8522395 56.25328,44.642049 56.25328,29.6335728 C56.25328,24.2292531 54.68648,19.0404639 51.71288,14.5668993 L44.33888,19.1544503 L44.33888,37.7462735 L28.74848,47.445151 L28.74848,28.8533279 L5.62968,43.2352803 Z M29.12648,58.8590422 C18.34288,58.8590422 8.48928,52.9193075 3.41048,43.3580966 L2.97008,42.5288857 L30.74848,25.2479061 L30.74848,43.8397293 L42.33888,36.6292871 L42.33888,18.0374639 L52.26208,11.8641374 L52.80688,12.6267224 C56.37008,17.6132259 58.25328,23.4935592 58.25328,29.6335728 C58.25328,45.7486 45.18688,58.8590422 29.12648,58.8590422 Z" id="Fill-7"></path>
                            <path d="M30.74844,2.47189932 L30.74844,43.8397293 L42.33924,36.6292871 L42.33924,5.86379728 C38.79564,3.87786531 34.81884,2.71512381 30.74844,2.47189932 Z M28.74844,47.445151 L28.74844,0.401280272 L29.77004,0.423756463 C34.72604,0.53212381 39.59324,1.91280408 43.84524,4.41689252 L44.33924,4.70747755 L44.33924,37.7462735 L28.74844,47.445151 Z" id="Fill-9"></path>
                            <path d="M86.791,21.5055401 L86.791,39.326751 L89.9326,39.326751 C92.2342,39.326751 94.0254,38.608717 95.3062,37.1718463 C96.5862,35.7349755 97.2266,33.6884381 97.2266,31.0330367 L97.2266,29.7053361 C97.2266,27.1233837 96.6226,25.1161796 95.415,23.6845265 C94.207,22.2528735 92.4934,21.5264109 90.2746,21.5055401 L86.791,21.5055401 Z M83.805,41.7770571 L83.805,19.0556354 L90.197,19.0556354 C92.1666,19.0556354 93.9086,19.4923156 95.4226,20.3664789 C96.9362,21.2402408 98.1054,22.4836558 98.9298,24.0963224 C99.7538,25.7089891 100.1714,27.5604653 100.1818,29.6515537 L100.1818,31.1028735 C100.1818,33.2461388 99.7694,35.1241048 98.9454,36.7363701 C98.121,38.3490367 96.9442,39.587234 95.415,40.4505605 C93.8854,41.3142884 92.1046,41.7561864 90.0726,41.7770571 L83.805,41.7770571 Z" id="Fill-12"></path>
                            <path d="M108.45604,26.9362694 C109.73124,25.3653442 111.39004,24.5798816 113.43244,24.5798816 C116.98884,24.5798816 118.78244,26.5931061 118.81404,30.6191537 L118.81404,41.7769769 L115.93644,41.7769769 L115.93644,30.6035007 C115.92644,29.3861741 115.64884,28.4867252 115.10444,27.9039497 C114.56044,27.3211741 113.71284,27.0297864 112.56204,27.0297864 C111.62884,27.0297864 110.80964,27.2794327 110.10444,27.7791265 C109.39924,28.278419 108.84964,28.9338408 108.45604,29.7453918 L108.45604,41.7769769 L105.57884,41.7769769 L105.57884,17.8069224 L108.45604,17.8069224 L108.45604,26.9362694 Z" id="Fill-14"></path>
                            <path d="M130.0744,39.5765578 C130.9764,39.5765578 131.832,39.3425646 132.6404,38.8741769 C133.4496,38.4061905 134.0348,37.7977279 134.398,37.0483878 L134.398,33.5842449 L132.1428,33.5842449 C128.6176,33.5842449 126.8548,34.6193537 126.8548,36.6895714 C126.8548,37.5950408 127.1556,38.3022381 127.7572,38.811966 C128.3584,39.3216939 129.1308,39.5765578 130.0744,39.5765578 Z M134.8492,41.7768163 C134.6828,41.4440884 134.5484,40.8512789 134.4448,39.9979864 C133.1072,41.3923129 131.5104,42.0890748 129.6544,42.0890748 C127.9956,42.0890748 126.6344,41.6182789 125.572,40.6766871 C124.5092,39.7354966 123.978,38.541449 123.978,37.0953469 C123.978,35.3373878 124.644,33.9719592 125.9764,32.9990612 C127.3084,32.0261633 129.1828,31.5401156 131.5988,31.5401156 L134.398,31.5401156 L134.398,30.2132177 C134.398,29.2045986 134.0972,28.4006735 133.496,27.8022449 C132.8944,27.2042177 132.008,26.9052041 130.8364,26.9052041 C129.81,26.9052041 128.9492,27.1652857 128.2548,27.685449 C127.56,28.2056122 127.2128,28.8349456 127.2128,29.573449 L124.32,29.573449 C124.32,28.7309932 124.6176,27.917034 125.2144,27.1311701 C125.8104,26.3461088 126.6188,25.7244014 127.6404,25.266449 C128.6616,24.808898 129.784,24.5797211 131.0076,24.5797211 C132.9464,24.5797211 134.4656,25.0661701 135.5644,26.039068 C136.6636,27.011966 137.2336,28.3513061 137.2752,30.0574898 L137.2752,37.829034 C137.2752,39.3790884 137.472,40.612068 137.866,41.5271701 L137.866,41.7768163 L134.8492,41.7768163 Z" id="Fill-16"></path>
                            <path d="M151.25684,27.4824408 C150.82124,27.4097946 150.34924,27.3732707 149.84164,27.3732707 C147.95444,27.3732707 146.67404,28.1796041 146.00004,29.7918694 L146.00004,41.7768966 L143.12284,41.7768966 L143.12284,24.8920599 L145.92244,24.8920599 L145.96884,26.8426721 C146.91244,25.3343592 148.24964,24.5798014 149.98164,24.5798014 C150.54124,24.5798014 150.96644,24.652849 151.25684,24.7985429 L151.25684,27.4824408 Z" id="Fill-18"></path>
                            <path d="M157.94472,24.8920197 L158.02232,26.764768 C159.25592,25.3082306 160.91992,24.5797612 163.01472,24.5797612 C165.36832,24.5797612 166.96992,25.4852306 167.82032,27.2953667 C168.38032,26.4838156 169.10872,25.8283939 170.00552,25.3287 C170.90232,24.8294075 171.96272,24.5797612 173.18632,24.5797612 C176.87712,24.5797612 178.75352,26.5408088 178.81632,30.4629041 L178.81632,41.7768565 L175.93872,41.7768565 L175.93872,30.6346864 C175.93872,29.4281966 175.66392,28.5255367 175.11472,27.9271082 C174.56512,27.329081 173.64192,27.0300673 172.34632,27.0300673 C171.27832,27.0300673 170.39152,27.3499517 169.68672,27.9897204 C168.98152,28.6294891 168.57192,29.4904075 168.45792,30.5724755 L168.45792,41.7768565 L165.56552,41.7768565 L165.56552,30.7125503 C165.56552,28.2574279 164.36792,27.0300673 161.97272,27.0300673 C160.08552,27.0300673 158.79472,27.8359993 158.10032,29.448666 L158.10032,41.7768565 L155.22272,41.7768565 L155.22272,24.8920197 L157.94472,24.8920197 Z" id="Fill-20"></path>
                            <path d="M190.1076,39.5765578 C191.0096,39.5765578 191.8652,39.3425646 192.6736,38.8741769 C193.4828,38.4061905 194.068,37.7977279 194.4312,37.0483878 L194.4312,33.5842449 L192.176,33.5842449 C188.6508,33.5842449 186.888,34.6193537 186.888,36.6895714 C186.888,37.5950408 187.1888,38.3022381 187.7904,38.811966 C188.3916,39.3216939 189.164,39.5765578 190.1076,39.5765578 Z M194.8824,41.7768163 C194.716,41.4440884 194.5816,40.8512789 194.478,39.9979864 C193.1404,41.3923129 191.5436,42.0890748 189.6876,42.0890748 C188.0288,42.0890748 186.6676,41.6182789 185.6052,40.6766871 C184.5424,39.7354966 184.0112,38.541449 184.0112,37.0953469 C184.0112,35.3373878 184.6772,33.9719592 186.0096,32.9990612 C187.3416,32.0261633 189.216,31.5401156 191.632,31.5401156 L194.4312,31.5401156 L194.4312,30.2132177 C194.4312,29.2045986 194.1304,28.4006735 193.5292,27.8022449 C192.9276,27.2042177 192.0412,26.9052041 190.8696,26.9052041 C189.8432,26.9052041 188.9824,27.1652857 188.288,27.685449 C187.5932,28.2056122 187.246,28.8349456 187.246,29.573449 L184.3532,29.573449 C184.3532,28.7309932 184.6508,27.917034 185.2476,27.1311701 C185.8436,26.3461088 186.652,25.7244014 187.6736,25.266449 C188.6948,24.808898 189.8172,24.5797211 191.0408,24.5797211 C192.9796,24.5797211 194.4988,25.0661701 195.5976,26.039068 C196.6968,27.011966 197.2668,28.3513061 197.3084,30.0574898 L197.3084,37.829034 C197.3084,39.3790884 197.5052,40.612068 197.8992,41.5271701 L197.8992,41.7768163 L194.8824,41.7768163 Z" id="Fill-22"></path>
                        </g>
                    </g>
                </g>
            </g>
        </g>
    </g>
</svg>
